X:1
T:Title
%%score { 1 | 2 }
L:1/8
M:3/4
K:Ab
V:1 treble nm="Grand Piano"
V:2 bass 
V:1
 z2 z2[Q:1/4=100] [CE]>[CE] | [CE]3 [CE] [DF]>[DF] | [CE]4 [CA]>[DB] | [Ec]3 [EB] [EA]>[Ec] | %4
[M:2/4] B4 |[M:1/4] c>d |[M:3/4] e3 c c>B | A4 [FA]>F | E3 c c>B |[M:2/4] [CA]4 |[M:1/4] G>A | %11
[M:3/4] B3 E F>E | [Ec]4 [Ec]>[DB] | [CA]3 [Ec] [=DB]>[DA] |[M:2/4] B4 |[M:1/4] c>d | %16
[M:3/4] e3 c c>B | A4 [FA]>F | E3 c c>B |[M:2/4] [CA]4 |] %20
V:2
 z2 z2 [A,,A,]>[A,,A,] | [A,,A,]3 [A,,A,] [D,A,]>[D,A,] | [A,,A,]4 [A,,A,]>[A,,A,] | %3
 [A,,A,]3 [B,,G,] [C,A,]>[A,,A,] |[M:2/4] [E,G,E]4 |[M:1/4] [A,E]>[A,B,E] | %6
[M:3/4] [A,CE]3 [A,E] [E,G,E]>[E,G,D] | [F,A,C]4 [D,A,]>[D,A,D] | %8
 [E,A,C]3 [E,A,E] [E,G,E]>[E,G,D] |[M:2/4] [A,,A,]4 |[M:1/4] [E,B,E]>[E,A,E] | %11
[M:3/4] [E,G,E]3 [E,G,D] [E,G,D]>[E,G,D] | [A,,A,]4 [A,,A,]>[A,,A,] | %13
 [A,,A,]3 [A,,A,] [B,,A,]>[B,,A,] |[M:2/4] [E,G,E]4 |[M:1/4] [A,E]>[A,B,E] | %16
[M:3/4] [A,CE]3 [A,E] [E,G,E]>[E,G,D] | [F,A,C]4 [D,A,]>[D,A,D] | %18
 [E,A,C]3 [E,A,E] [E,G,E]>[E,G,D] |[M:2/4] [A,,A,]4 |] %20

